X: 131
T:Fleur de Madragore
M:4/4
L:1/8
Q:224
D:Lunasa
Z:Christoph
K:A
E2 A2 GABc | Aded cAAF | E2 A2 GA B2 | ~B3 d cAAF :|
| ABce ~a2 ga | bAaA gAeA | dfed cABc | defg agfe |
~a3 b a2 ga | bAaA gAeA | dfed cABc | dcBd cA A2:|
